app/dist/common/images/meidensha-oration.svg

<svg height="18" viewBox="0 0 18 18" width="18" xmlns="http://www.w3.org/2000/svg"><path d="m0 0h18v18h-18z" fill="#f0f3fa"/><path d="m13.18 7.88-1.81-2.88h.63l1.5 2.36zm-1.53 2.45-3.34-5.33h1.27l2.71 4.33zm-7.65-5.33v8h4v-4.92l2.54 3.97.98-1.55-3.47-5.5zm5.97 0 2.51 4 .44-.7-2.08-3.3zm2.91 0 1.06 1.67.22-.34-.84-1.33zm1.82.46.3-.46h-.6z" fill="#2d71c1"/></svg>

<!-- by TradingView --><svg width="18" height="18" viewBox="0 0 18 18" xmlns="http://www.w3.org/2000/svg"><path fill="#F0F3FA" d="M0 0h18v18H0z"/><path d="M13.18 7.88 11.37 5H12l1.5 2.36-.32.52Zm-1.53 2.45L8.31 5h1.27l2.71 4.33-.64 1ZM4 5v8h4V8.08l2.54 3.97.98-1.55L8.05 5H4Zm5.97 0 2.51 4 .44-.7L10.84 5h-.87Zm2.91 0 1.06 1.67.22-.34L13.32 5h-.44Zm1.82.46L15 5h-.6l.3.46Z" fill="#2D71C1"/></svg>
